X: 340
T: Rockingham Cindy
C:Traditional
B: canberra pickers and fiddlers
B: tunes
M:C|
L:1/8
Q: 1/4=100
K:D
V:1 
de|:f2a2 abag|f3g fede|fd2d d2d2|([de][d2f2])g  fd[df][de]|
faa2 abag|f[d2f2]g fedf|ed2e fgfe|1(Dd2)(Dd2)- de:|2(Dd2)(D d2) d2|[M:2/4]ed3||
[M:C|]|:B3{B}c BABc|BABd-d2d2 |A3B AGFG|AGFG AFd2|
B3{B}c BABc|[M:2/4]BABc |[M:C|]Ad2e  f2e2 |1 (Dd2)dd2dd|[M:2/4]ed3:|2[M:C|](Dd2)d d d2e2||
% abcbook-tune_id 679ffc6ef07ae0584ba2140c
% abcbook-tune_composer_id 
% abcbook-link-0 https://syntithenai.github.io/numerella2025/music/rockingham cindy.mp3
% abcbook-boost 0
% abcbook-difficulty 0
% abcbook-tags old time tunes
% abcbook-tablature 
% abcbook-transpose 
% abcbook-tuning ADAE
% abcbook-lastupdated 1738647869239
% abcbook-src-url 
% abcbook-soundfonts 
% abcbook-repeats 1


